X: 1
T: Peeler Creek
R: waltz, mazurka
Z: 2011 John Chambers <jc:trillian.mit.edu>
S: QueTrad list June 23, 2008, by "nick"
S: http://www.thesession.org/tunes/display/6634 2007-1-14 by "nicholas"
M: 3/4
L: 1/8
P: waltz, mazurka
K: G
(3DEF |\
"G"G3 A B>c| "G"d2 B2 G2 | "D7"A>B A>G E2 | "G"G>A G>E D>E |\
"G"G2 G>A B>c | "G"d2 B2 G>B | "D7"A>B A>G E>F | "G"G4 :|
|: (3Bcd |\
"Em"e2 e>f g>f | "Em"e2 d2 (3Bcd | "Em"e2 e>f g>a | "B7"b2 a2 g>f |\
"Em"e2 e>f g>f | "Em"e>f e>d B>G | "D7"A>B A>G E>F | "G"G4 :|
